img/messages/msg8.svg

<svg width="136" height="63" viewBox="0 0 136 63" fill="none" xmlns="http://www.w3.org/2000/svg">
<path d="M0 20C0 8.9543 8.95431 0 20 0H116C127.046 0 136 8.95431 136 20V30C136 41.0457 127.046 50 116 50H45.0681C40.4947 50 36.0746 51.5846 32.4097 54.3205C28.1987 57.464 22.6327 61.3608 19.5 62.5C19.9205 62.1636 20.2703 61.5867 20.5612 60.8598C22.8186 55.2196 17.0751 50 11 50C4.92487 50 0 45.0751 0 39V20Z" fill="url(#paint0_linear_635_5672)"/>
<path d="M25.744 21.728V19.248H23.472V21.728H22.096V23.248H23.472V28.128C23.472 28.544 23.5413 28.88 23.68 29.136C23.8187 29.392 24.0053 29.5893 24.24 29.728C24.4853 29.8667 24.7627 29.9573 25.072 30C25.392 30.0533 25.728 30.08 26.08 30.08C26.304 30.08 26.5333 30.0747 26.768 30.064C27.0027 30.0533 27.216 30.032 27.408 30V28.24C27.3013 28.2613 27.1893 28.2773 27.072 28.288C26.9547 28.2987 26.832 28.304 26.704 28.304C26.32 28.304 26.064 28.24 25.936 28.112C25.808 27.984 25.744 27.728 25.744 27.344V23.248H27.408V21.728H25.744ZM28.489 18.576V30H30.761V25.664C30.761 24.8213 30.8997 24.2187 31.177 23.856C31.4543 23.4827 31.9023 23.296 32.521 23.296C33.065 23.296 33.4437 23.4667 33.657 23.808C33.8703 24.1387 33.977 24.6453 33.977 25.328V30H36.249V24.912C36.249 24.4 36.201 23.936 36.105 23.52C36.0197 23.0933 35.865 22.736 35.641 22.448C35.417 22.1493 35.1077 21.92 34.713 21.76C34.329 21.5893 33.833 21.504 33.225 21.504C32.7983 21.504 32.361 21.616 31.913 21.84C31.465 22.0533 31.097 22.4 30.809 22.88H30.761V18.576H28.489ZM40.3094 20.448V18.576H38.0374V20.448H40.3094ZM38.0374 21.728V30H40.3094V21.728H38.0374ZM43.8584 27.312H41.6984C41.7197 27.8667 41.8424 28.3307 42.0664 28.704C42.301 29.0667 42.5944 29.36 42.9464 29.584C43.309 29.808 43.7197 29.968 44.1784 30.064C44.637 30.16 45.1064 30.208 45.5864 30.208C46.0557 30.208 46.5144 30.16 46.9624 30.064C47.421 29.9787 47.8264 29.824 48.1784 29.6C48.5304 29.376 48.813 29.0827 49.0264 28.72C49.2504 28.3467 49.3624 27.888 49.3624 27.344C49.3624 26.96 49.2877 26.64 49.1384 26.384C48.989 26.1173 48.7917 25.8987 48.5464 25.728C48.301 25.5467 48.0184 25.4027 47.6984 25.296C47.389 25.1893 47.069 25.0987 46.7384 25.024C46.4184 24.9493 46.1037 24.88 45.7944 24.816C45.485 24.752 45.2077 24.6827 44.9624 24.608C44.7277 24.5227 44.5357 24.416 44.3864 24.288C44.237 24.16 44.1624 23.9947 44.1624 23.792C44.1624 23.6213 44.205 23.488 44.2904 23.392C44.3757 23.2853 44.477 23.2053 44.5944 23.152C44.7224 23.0987 44.861 23.0667 45.0104 23.056C45.1597 23.0347 45.2984 23.024 45.4264 23.024C45.8317 23.024 46.1837 23.104 46.4824 23.264C46.781 23.4133 46.9464 23.7067 46.9784 24.144H49.1384C49.0957 23.632 48.9624 23.2107 48.7384 22.88C48.525 22.5387 48.253 22.2667 47.9224 22.064C47.5917 21.8613 47.213 21.7173 46.7864 21.632C46.3704 21.5467 45.9384 21.504 45.4904 21.504C45.0424 21.504 44.605 21.5467 44.1784 21.632C43.7517 21.7067 43.3677 21.8453 43.0264 22.048C42.685 22.24 42.4077 22.5067 42.1944 22.848C41.9917 23.1893 41.8904 23.6267 41.8904 24.16C41.8904 24.5227 41.965 24.832 42.1144 25.088C42.2637 25.3333 42.461 25.5413 42.7064 25.712C42.9517 25.872 43.229 26.0053 43.5384 26.112C43.8584 26.208 44.1837 26.2933 44.5144 26.368C45.325 26.5387 45.9544 26.7093 46.4024 26.88C46.861 27.0507 47.0904 27.3067 47.0904 27.648C47.0904 27.8507 47.0424 28.0213 46.9464 28.16C46.8504 28.288 46.7277 28.3947 46.5784 28.48C46.4397 28.5547 46.2797 28.6133 46.0984 28.656C45.9277 28.688 45.7624 28.704 45.6024 28.704C45.3784 28.704 45.1597 28.6773 44.9464 28.624C44.7437 28.5707 44.5624 28.4907 44.4024 28.384C44.2424 28.2667 44.109 28.1227 44.0024 27.952C43.9064 27.7707 43.8584 27.5573 43.8584 27.312ZM57.4813 20.448V18.576H55.2093V20.448H57.4813ZM55.2093 21.728V30H57.4813V21.728H55.2093ZM61.0303 27.312H58.8703C58.8916 27.8667 59.0143 28.3307 59.2383 28.704C59.4729 29.0667 59.7663 29.36 60.1183 29.584C60.4809 29.808 60.8916 29.968 61.3503 30.064C61.8089 30.16 62.2783 30.208 62.7583 30.208C63.2276 30.208 63.6863 30.16 64.1343 30.064C64.5929 29.9787 64.9983 29.824 65.3503 29.6C65.7023 29.376 65.9849 29.0827 66.1983 28.72C66.4223 28.3467 66.5343 27.888 66.5343 27.344C66.5343 26.96 66.4596 26.64 66.3103 26.384C66.1609 26.1173 65.9636 25.8987 65.7183 25.728C65.4729 25.5467 65.1903 25.4027 64.8703 25.296C64.5609 25.1893 64.2409 25.0987 63.9103 25.024C63.5903 24.9493 63.2756 24.88 62.9663 24.816C62.6569 24.752 62.3796 24.6827 62.1343 24.608C61.8996 24.5227 61.7076 24.416 61.5583 24.288C61.4089 24.16 61.3343 23.9947 61.3343 23.792C61.3343 23.6213 61.3769 23.488 61.4623 23.392C61.5476 23.2853 61.6489 23.2053 61.7663 23.152C61.8943 23.0987 62.0329 23.0667 62.1823 23.056C62.3316 23.0347 62.4703 23.024 62.5983 23.024C63.0036 23.024 63.3556 23.104 63.6543 23.264C63.9529 23.4133 64.1183 23.7067 64.1503 24.144H66.3103C66.2676 23.632 66.1343 23.2107 65.9103 22.88C65.6969 22.5387 65.4249 22.2667 65.0943 22.064C64.7636 21.8613 64.3849 21.7173 63.9583 21.632C63.5423 21.5467 63.1103 21.504 62.6623 21.504C62.2143 21.504 61.7769 21.5467 61.3503 21.632C60.9236 21.7067 60.5396 21.8453 60.1983 22.048C59.8569 22.24 59.5796 22.5067 59.3663 22.848C59.1636 23.1893 59.0623 23.6267 59.0623 24.16C59.0623 24.5227 59.1369 24.832 59.2863 25.088C59.4356 25.3333 59.6329 25.5413 59.8783 25.712C60.1236 25.872 60.4009 26.0053 60.7103 26.112C61.0303 26.208 61.3556 26.2933 61.6863 26.368C62.4969 26.5387 63.1263 26.7093 63.5743 26.88C64.0329 27.0507 64.2623 27.3067 64.2623 27.648C64.2623 27.8507 64.2143 28.0213 64.1183 28.16C64.0223 28.288 63.8996 28.3947 63.7503 28.48C63.6116 28.5547 63.4516 28.6133 63.2703 28.656C63.0996 28.688 62.9343 28.704 62.7743 28.704C62.5503 28.704 62.3316 28.6773 62.1183 28.624C61.9156 28.5707 61.7343 28.4907 61.5743 28.384C61.4143 28.2667 61.2809 28.1227 61.1743 27.952C61.0783 27.7707 61.0303 27.5573 61.0303 27.312ZM78.1891 25.84C78.1891 26.1813 78.1571 26.512 78.0931 26.832C78.0291 27.152 77.9225 27.44 77.7731 27.696C77.6238 27.9413 77.4211 28.1387 77.1651 28.288C76.9198 28.4373 76.6105 28.512 76.2371 28.512C75.8851 28.512 75.5811 28.4373 75.3251 28.288C75.0798 28.128 74.8718 27.9253 74.7011 27.68C74.5411 27.424 74.4238 27.136 74.3491 26.816C74.2745 26.496 74.2371 26.176 74.2371 25.856C74.2371 25.5147 74.2691 25.1893 74.3331 24.88C74.4078 24.56 74.5198 24.2773 74.6691 24.032C74.8291 23.7867 75.0371 23.5893 75.2931 23.44C75.5491 23.2907 75.8638 23.216 76.2371 23.216C76.6105 23.216 76.9198 23.2907 77.1651 23.44C77.4105 23.5893 77.6078 23.7867 77.7571 24.032C77.9171 24.2667 78.0291 24.544 78.0931 24.864C78.1571 25.1733 78.1891 25.4987 78.1891 25.84ZM78.2211 28.944V30H80.3811V18.576H78.1091V22.736H78.0771C77.8211 22.3307 77.4691 22.0267 77.0211 21.824C76.5838 21.6107 76.1198 21.504 75.6291 21.504C75.0211 21.504 74.4878 21.6267 74.0291 21.872C73.5705 22.1067 73.1865 22.4213 72.8771 22.816C72.5785 23.2107 72.3491 23.6693 72.1891 24.192C72.0398 24.704 71.9651 25.2373 71.9651 25.792C71.9651 26.368 72.0398 26.9227 72.1891 27.456C72.3491 27.9893 72.5785 28.464 72.8771 28.88C73.1865 29.2853 73.5758 29.6107 74.0451 29.856C74.5145 30.0907 75.0585 30.208 75.6771 30.208C76.2211 30.208 76.7065 30.112 77.1331 29.92C77.5705 29.7173 77.9225 29.392 78.1891 28.944H78.2211ZM84.1144 25.872C84.1144 25.5413 84.1464 25.216 84.2104 24.896C84.2744 24.576 84.381 24.2933 84.5304 24.048C84.6904 23.8027 84.8984 23.6053 85.1544 23.456C85.4104 23.296 85.7304 23.216 86.1144 23.216C86.4984 23.216 86.8184 23.296 87.0744 23.456C87.341 23.6053 87.549 23.8027 87.6984 24.048C87.8584 24.2933 87.9704 24.576 88.0344 24.896C88.0984 25.216 88.1304 25.5413 88.1304 25.872C88.1304 26.2027 88.0984 26.528 88.0344 26.848C87.9704 27.1573 87.8584 27.44 87.6984 27.696C87.549 27.9413 87.341 28.1387 87.0744 28.288C86.8184 28.4373 86.4984 28.512 86.1144 28.512C85.7304 28.512 85.4104 28.4373 85.1544 28.288C84.8984 28.1387 84.6904 27.9413 84.5304 27.696C84.381 27.44 84.2744 27.1573 84.2104 26.848C84.1464 26.528 84.1144 26.2027 84.1144 25.872ZM81.8424 25.872C81.8424 26.5333 81.9437 27.1307 82.1464 27.664C82.349 28.1973 82.637 28.656 83.0104 29.04C83.3837 29.4133 83.8317 29.7013 84.3544 29.904C84.877 30.1067 85.4637 30.208 86.1144 30.208C86.765 30.208 87.3517 30.1067 87.8744 29.904C88.4077 29.7013 88.861 29.4133 89.2344 29.04C89.6077 28.656 89.8957 28.1973 90.0984 27.664C90.301 27.1307 90.4024 26.5333 90.4024 25.872C90.4024 25.2107 90.301 24.6133 90.0984 24.08C89.8957 23.536 89.6077 23.0773 89.2344 22.704C88.861 22.32 88.4077 22.0267 87.8744 21.824C87.3517 21.6107 86.765 21.504 86.1144 21.504C85.4637 21.504 84.877 21.6107 84.3544 21.824C83.8317 22.0267 83.3837 22.32 83.0104 22.704C82.637 23.0773 82.349 23.536 82.1464 24.08C81.9437 24.6133 81.8424 25.2107 81.8424 25.872ZM96.0556 28.512C95.693 28.512 95.3836 28.4373 95.1276 28.288C94.8716 28.1387 94.6636 27.9467 94.5036 27.712C94.3543 27.4667 94.2423 27.184 94.1676 26.864C94.1036 26.544 94.0716 26.2187 94.0716 25.888C94.0716 25.5467 94.1036 25.216 94.1676 24.896C94.2316 24.576 94.3383 24.2933 94.4876 24.048C94.6476 23.8027 94.8503 23.6053 95.0956 23.456C95.3516 23.296 95.6663 23.216 96.0396 23.216C96.4023 23.216 96.7063 23.296 96.9516 23.456C97.2076 23.6053 97.4156 23.808 97.5756 24.064C97.7356 24.3093 97.8476 24.592 97.9116 24.912C97.9863 25.232 98.0236 25.5573 98.0236 25.888C98.0236 26.2187 97.9916 26.544 97.9276 26.864C97.8636 27.184 97.7516 27.4667 97.5916 27.712C97.4423 27.9467 97.2396 28.1387 96.9836 28.288C96.7383 28.4373 96.429 28.512 96.0556 28.512ZM91.8796 21.728V32.896H94.1516V28.976H94.1836C94.461 29.3813 94.813 29.6907 95.2396 29.904C95.677 30.1067 96.1516 30.208 96.6636 30.208C97.2716 30.208 97.7996 30.0907 98.2476 29.856C98.7063 29.6213 99.085 29.3067 99.3836 28.912C99.693 28.5173 99.9223 28.064 100.072 27.552C100.221 27.04 100.296 26.5067 100.296 25.952C100.296 25.3653 100.221 24.8053 100.072 24.272C99.9223 23.728 99.693 23.2533 99.3836 22.848C99.0743 22.4427 98.685 22.1173 98.2156 21.872C97.7463 21.6267 97.1863 21.504 96.5356 21.504C96.0236 21.504 95.5543 21.6053 95.1276 21.808C94.701 22.0107 94.349 22.336 94.0716 22.784H94.0396V21.728H91.8796ZM107.229 24.976H103.533C103.544 24.816 103.576 24.6347 103.629 24.432C103.693 24.2293 103.794 24.0373 103.933 23.856C104.082 23.6747 104.274 23.5253 104.509 23.408C104.754 23.28 105.058 23.216 105.421 23.216C105.976 23.216 106.386 23.3653 106.653 23.664C106.93 23.9627 107.122 24.4 107.229 24.976ZM103.533 26.416H109.501C109.544 25.776 109.49 25.1627 109.341 24.576C109.192 23.9893 108.946 23.4667 108.605 23.008C108.274 22.5493 107.848 22.1867 107.325 21.92C106.802 21.6427 106.189 21.504 105.485 21.504C104.856 21.504 104.28 21.616 103.757 21.84C103.245 22.064 102.802 22.3733 102.429 22.768C102.056 23.152 101.768 23.6107 101.565 24.144C101.362 24.6773 101.261 25.2533 101.261 25.872C101.261 26.512 101.357 27.0987 101.549 27.632C101.752 28.1653 102.034 28.624 102.397 29.008C102.76 29.392 103.202 29.6907 103.725 29.904C104.248 30.1067 104.834 30.208 105.485 30.208C106.424 30.208 107.224 29.9947 107.885 29.568C108.546 29.1413 109.037 28.432 109.357 27.44H107.357C107.282 27.696 107.08 27.9413 106.749 28.176C106.418 28.4 106.024 28.512 105.565 28.512C104.925 28.512 104.434 28.3467 104.093 28.016C103.752 27.6853 103.565 27.152 103.533 26.416ZM110.96 27.536V30H113.472V27.536H110.96ZM113.392 21.648V18.576H111.024V21.648L111.632 26.576H112.768L113.392 21.648Z" fill="#25394E"/>
<defs>
<linearGradient id="paint0_linear_635_5672" x1="0" y1="0" x2="15.217" y2="95.2246" gradientUnits="userSpaceOnUse">
<stop stop-color="#E8E8E8"/>
<stop offset="1" stop-color="#FAFAFA"/>
</linearGradient>
</defs>
</svg>

<svg width="136" height="63" fill="none" xmlns="http://www.w3.org/2000/svg"><path d="M0 20C0 8.954 8.954 0 20 0h96c11.046 0 20 8.954 20 20v10c0 11.046-8.954 20-20 20H45.068c-4.573 0-8.993 1.585-12.658 4.32-4.211 3.144-9.777 7.04-12.91 8.18.42-.336.77-.913 1.061-1.64C22.82 55.22 17.075 50 11 50 4.925 50 0 45.075 0 39V20z" fill="url(#paint0_linear_635_5672)"/><path d="M25.744 21.728v-2.48h-2.272v2.48h-1.376v1.52h1.376v4.88c0 .416.07.752.208 1.008a1.5 1.5 0 00.56.592c.245.139.523.23.832.272.32.053.656.08 1.008.08.224 0 .453-.005.688-.016.235-.01.448-.032.64-.064v-1.76a3.203 3.203 0 01-.336.048 4.32 4.32 0 01-.368.016c-.384 0-.64-.064-.768-.192s-.192-.384-.192-.768v-4.096h1.664v-1.52h-1.664zm2.745-3.152V30h2.272v-4.336c0-.843.139-1.445.416-1.808.277-.373.725-.56 1.344-.56.544 0 .923.17 1.136.512.213.33.32.837.32 1.52V30h2.272v-5.088c0-.512-.048-.976-.144-1.392-.085-.427-.24-.784-.464-1.072a2.125 2.125 0 00-.928-.688c-.384-.17-.88-.256-1.488-.256-.427 0-.864.112-1.312.336-.448.213-.816.56-1.104 1.04h-.048v-4.304h-2.272zm11.82 1.872v-1.872h-2.272v1.872h2.272zm-2.272 1.28V30h2.272v-8.272h-2.272zm5.821 5.584h-2.16c.022.555.144 1.019.368 1.392.235.363.528.656.88.88.363.224.774.384 1.232.48a6.854 6.854 0 002.784 0 3.39 3.39 0 001.216-.464 2.57 2.57 0 00.848-.88c.224-.373.336-.832.336-1.376 0-.384-.074-.704-.224-.96a1.946 1.946 0 00-.592-.656 3.026 3.026 0 00-.848-.432 9.082 9.082 0 00-.96-.272c-.32-.075-.634-.144-.944-.208a9.435 9.435 0 01-.832-.208 1.845 1.845 0 01-.576-.32.623.623 0 01-.224-.496c0-.17.043-.304.128-.4a.82.82 0 01.304-.24 1.32 1.32 0 01.416-.096c.15-.021.288-.032.416-.032.406 0 .758.08 1.056.24.299.15.464.443.496.88h2.16c-.042-.512-.176-.933-.4-1.264a2.488 2.488 0 00-.816-.816 3.448 3.448 0 00-1.136-.432 6.676 6.676 0 00-2.608 0c-.426.075-.81.213-1.152.416a2.298 2.298 0 00-.832.8c-.202.341-.304.779-.304 1.312 0 .363.075.672.224.928.15.245.347.453.592.624.246.16.523.293.832.4.32.096.646.181.976.256.811.17 1.44.341 1.888.512.459.17.688.427.688.768a.878.878 0 01-.144.512 1.192 1.192 0 01-.368.32 1.954 1.954 0 01-.48.176 2.69 2.69 0 01-1.152-.032 1.795 1.795 0 01-.544-.24 1.545 1.545 0 01-.4-.432 1.35 1.35 0 01-.144-.64zm13.623-6.864v-1.872H55.21v1.872h2.272zm-2.272 1.28V30h2.272v-8.272H55.21zm5.821 5.584h-2.16c.022.555.144 1.019.368 1.392.235.363.528.656.88.88.363.224.774.384 1.232.48a6.854 6.854 0 002.784 0 3.39 3.39 0 001.216-.464 2.57 2.57 0 00.848-.88c.224-.373.336-.832.336-1.376 0-.384-.074-.704-.224-.96a1.946 1.946 0 00-.592-.656 3.026 3.026 0 00-.848-.432 9.082 9.082 0 00-.96-.272c-.32-.075-.634-.144-.944-.208a9.435 9.435 0 01-.832-.208 1.845 1.845 0 01-.576-.32.623.623 0 01-.224-.496c0-.17.043-.304.128-.4a.82.82 0 01.304-.24 1.32 1.32 0 01.416-.096c.15-.021.288-.032.416-.032.406 0 .758.08 1.056.24.299.15.464.443.496.88h2.16c-.042-.512-.176-.933-.4-1.264a2.488 2.488 0 00-.816-.816 3.448 3.448 0 00-1.136-.432 6.676 6.676 0 00-2.608 0c-.426.075-.81.213-1.152.416a2.298 2.298 0 00-.832.8c-.202.341-.304.779-.304 1.312 0 .363.075.672.224.928.15.245.347.453.592.624.246.16.523.293.832.4.32.096.646.181.976.256.81.17 1.44.341 1.888.512.459.17.688.427.688.768a.878.878 0 01-.144.512 1.192 1.192 0 01-.368.32 1.954 1.954 0 01-.48.176 2.69 2.69 0 01-1.152-.032 1.795 1.795 0 01-.544-.24 1.545 1.545 0 01-.4-.432 1.35 1.35 0 01-.144-.64zm17.16-1.472c0 .341-.033.672-.097.992-.064.32-.17.608-.32.864-.15.245-.352.443-.608.592-.245.15-.555.224-.928.224-.352 0-.656-.075-.912-.224a2.257 2.257 0 01-.624-.608 2.831 2.831 0 01-.352-.864 4.216 4.216 0 01-.112-.96c0-.341.032-.667.096-.976a2.89 2.89 0 01.336-.848c.16-.245.368-.443.624-.592.256-.15.57-.224.944-.224s.683.075.928.224c.245.15.443.347.592.592.16.235.272.512.336.832.064.31.096.635.096.976zm.031 3.104V30h2.16V18.576H78.11v4.16h-.032a2.38 2.38 0 00-1.056-.912 3.134 3.134 0 00-1.392-.32c-.608 0-1.141.123-1.6.368-.459.235-.843.55-1.152.944a4.385 4.385 0 00-.688 1.376 5.686 5.686 0 00-.224 1.6c0 .576.075 1.13.224 1.664.16.533.39 1.008.688 1.424.31.405.699.73 1.168.976.47.235 1.013.352 1.632.352.544 0 1.03-.096 1.456-.288.438-.203.79-.528 1.056-.976h.032zm5.893-3.072c0-.33.032-.656.096-.976a2.6 2.6 0 01.32-.848c.16-.245.368-.443.624-.592.256-.16.576-.24.96-.24s.704.08.96.24c.267.15.475.347.624.592.16.245.272.528.336.848a4.964 4.964 0 010 1.952c-.064.31-.176.592-.336.848a1.663 1.663 0 01-.624.592c-.256.15-.576.224-.96.224s-.704-.075-.96-.224a1.843 1.843 0 01-.624-.592 2.792 2.792 0 01-.32-.848 4.964 4.964 0 01-.096-.976zm-2.272 0c0 .661.102 1.259.304 1.792.203.533.491.992.864 1.376.374.373.822.661 1.344.864.523.203 1.11.304 1.76.304.651 0 1.238-.101 1.76-.304.534-.203.987-.49 1.36-.864.374-.384.662-.843.864-1.376.203-.533.304-1.13.304-1.792 0-.661-.101-1.259-.304-1.792a3.782 3.782 0 00-.864-1.376 3.702 3.702 0 00-1.36-.88c-.522-.213-1.109-.32-1.76-.32a4.63 4.63 0 00-1.76.32 3.78 3.78 0 00-2.208 2.256 5.023 5.023 0 00-.304 1.792zm14.214 2.64c-.363 0-.672-.075-.928-.224a1.904 1.904 0 01-.624-.576 2.878 2.878 0 01-.336-.848 5.047 5.047 0 010-1.968c.064-.32.17-.603.32-.848.16-.245.362-.443.608-.592.256-.16.57-.24.944-.24.362 0 .666.08.912.24.256.15.464.352.624.608.16.245.272.528.336.848.074.32.112.645.112.976 0 .33-.032.656-.096.976-.064.32-.176.603-.336.848-.15.235-.352.427-.608.576-.246.15-.555.224-.928.224zm-4.176-6.784v11.168h2.272v-3.92h.032c.277.405.629.715 1.056.928.437.203.912.304 1.424.304.608 0 1.136-.117 1.584-.352a3.29 3.29 0 001.136-.944c.309-.395.538-.848.688-1.36a5.697 5.697 0 00.224-1.6c0-.587-.075-1.147-.224-1.68a4.12 4.12 0 00-.688-1.424 3.468 3.468 0 00-1.168-.976c-.47-.245-1.03-.368-1.68-.368a3.24 3.24 0 00-1.408.304c-.427.203-.779.528-1.056.976h-.032v-1.056h-2.16zm15.349 3.248h-3.696a2.99 2.99 0 01.096-.544 1.86 1.86 0 01.304-.576c.149-.181.341-.33.576-.448.245-.128.549-.192.912-.192.555 0 .965.15 1.232.448.277.299.469.736.576 1.312zm-3.696 1.44h5.968a5.84 5.84 0 00-.16-1.84 4.425 4.425 0 00-.736-1.568 3.526 3.526 0 00-1.28-1.088c-.523-.277-1.136-.416-1.84-.416-.629 0-1.205.112-1.728.336a4.026 4.026 0 00-1.328.928 3.98 3.98 0 00-.864 1.376 4.817 4.817 0 00-.304 1.728c0 .64.096 1.227.288 1.76a4.1 4.1 0 00.848 1.376c.363.384.805.683 1.328.896.523.203 1.109.304 1.76.304.939 0 1.739-.213 2.4-.64.661-.427 1.152-1.136 1.472-2.128h-2c-.075.256-.277.501-.608.736-.331.224-.725.336-1.184.336-.64 0-1.131-.165-1.472-.496-.341-.33-.528-.864-.56-1.6zm7.427 1.12V30h2.512v-2.464h-2.512zm2.432-5.888v-3.072h-2.368v3.072l.608 4.928h1.136l.624-4.928z" fill="#25394E"/><defs><linearGradient id="paint0_linear_635_5672" x1="0" y1="0" x2="15.217" y2="95.225" gradientUnits="userSpaceOnUse"><stop stop-color="#E8E8E8"/><stop offset="1" stop-color="#FAFAFA"/></linearGradient></defs></svg>
